X:2
T:Skipping Sideways
C:Tom Graves, 1995
M:4/4
L:1/8
Q:1/4=160
K:DDor % no sharps/flats
d2 aa g2 a2|fgfd e3 f/e/|d2 de f2 d2|eeee a4|
d2 aa g2 a2|fgfd e3 f/e/|d2 de fefd|eaaa d4 :|
a2 af g2 ge|f2 fd e2 A2|a2 af g2 ge|fefd e3 f/e/|
d2 de f2 d2|eaaa a2 g2|afag gfge|daaa d2 :|
